X:1
T:Heavenly Flight, LM
T:Nahum Mitchell, 1816
T:Heavenly Flight, LM
T:Public Domain
C:Nahum Mitchell, 1816
Z:Public Domain
%%score ( 1 2 ) ( 3 4 )
L:1/8
M:3/4
K:G
V:1 treble 
V:2 treble 
V:3 bass 
V:4 bass 
V:1
 [DG]2 | [DB]4 [Fd]2 | [Gd]4 ([DB][EA]) | [DG]4 [DF]2 | [DG]4 [DB]2 | [Dd]4 (cB) | [FA]4 [EG]2 | %7
 (D>E F2) [E^c]2 | [Dd]4 [Fd]2 | [Gd]4 (BA) | [DG]4 D2 | [DG]4 [GB]2 | [FA]4 [DG]2 | G4 [GB]2 | %14
 (3(dBe d2) [Ac]2 | [GB]4 [FA]2 | G6 |] %17
V:2
 x2 | x6 | x6 | x6 | x6 | x4 G2 | x6 | d4 x2 | x6 | x4 D2 | x4 D2 | x6 | x6 | G4 x2 | B4 x2 | x6 | %16
 G6 |] %17
V:3
 [G,B,]2 | [G,B,]4 [D,A,]2 | G,4 (G,[C,A,]) | [D,B,]4 [D,D]2 | [G,,D]4 [G,D]2 | %5
 [G,B,]4 (G,/A,/B,) | [D,D]4 [E,B,]2 | (F,>G, A,2) [A,,A,]2 | [D,A,]4 [F,B,]2 | [G,B,]4 (G,A,) | %10
 [B,D]4 (DC) | [G,B,]4 [G,,B,]2 | [D,A,]4 [G,B,]2 | [E,B,]4 [G,D]2 | [G,D]4 [C,E]2 | %15
 [D,D]4 [D,D]2 | [G,,B,]6 |] %17
V:4
 x2 | x6 | G,4 G,2 | x6 | x6 | x4 C,2 | x6 | A,4 x2 | x6 | x4 D2 | x4 A,2 | x6 | x6 | x6 | x6 | %15
 x6 | x6 |] %17

